X: 416
T: My Heart Is Breaking
N:"Moderate"
N:Irish title: ta mo .croi.de ag .brisea.d
B:O'Neill's 416
Z:Transcribed by henrik.norbeck@mailbox.swipnet.se
M:C
L:1/8
K:D
A2 | d3 e (fedc) | d2 A2 A3 F | G3 B (AGFE) | F2 D2 D3 A |
d3 e (fedc) | d2 A2 A3 F | G3 B (dBAG) | F2 D2 D2 ||
A2 | d3 e f2 d2 | e3 c A3 A | (d2 {edc}d)e f2 d2 | e2 c2 c2 de |
f3 d (fedc) | (d2 {edc}d)e f2 F2 | G3 B (AGFE) | F2 D2 D2 ||


